;FLAVOR:Marlin
;TIME:5065
;Filament used: 10.7049m
;Layer height: 0.4
;MINX:55.303
;MINY:45.778
;MINZ:0.3
;MAXX:164.697
;MAXY:142.276
;MAXZ:31.5
;Generated with Cura_SteamEngine 4.4.0
M140 S60
M105
M190 S60
M104 S210
M105
M109 S210
M82 ;absolute extrusion mode
G21 ;metric values
G90 ;absolute positioning
M82 ;set extruder to absolute mode
M107 ;start with the fan off
G28 X0 Y0 ;move X/Y to min endstops
G28 Z0 ;move Z to min endstops
M84 ;steppers off
M0 S12 ;wait 12 seconds
M17 ;turn steppers on
G1 Z10.0 F300 ;move the platform down 10mm
G92 E0 ;zero the extruded length
G1 F200 E8 ;extrude 8mm of feed stock
G92 E0 ;zero the extruded length again
M0 S5 ;wait 5 seconds
G1 F9000
M117 Printing...
G92 E0
G92 E0
G1 F1500 E-6.5
;LAYER_COUNT:79
;LAYER:0
M107
G0 F3600 X57.721 Y60.201 Z0.3
;TYPE:SKIRT
G1 F1500 E0
G1 F1800 X69.726 Y48.196 E1.27053
G1 X70.323 Y47.656 E1.33077
G1 X70.97 Y47.178 E1.39097
G1 X71.662 Y46.767 E1.4512
G1 X72.305 Y46.461 E1.50449
G1 X72.414 Y46.415 E1.51334
G1 X73.17 Y46.14 E1.57354
G1 X73.949 Y45.94 E1.63373
G1 X74.745 Y45.819 E1.69399
G1 X75.563 Y45.778 E1.75528
G1 X124.228 Y45.779 E5.39714
G1 X144.436 Y45.778 E6.90941
G1 X145.24 Y45.818 E6.96965
G1 X146.036 Y45.938 E7.02989
G1 X146.816 Y46.135 E7.0901
G1 X147.572 Y46.41 E7.1503
G1 X148.298 Y46.758 E7.21055
G1 X148.985 Y47.176 E7.27073
G1 X149.628 Y47.661 E7.331
G1 X150.163 Y48.15 E7.38524
G1 X162.324 Y60.31 E8.67223
G1 X162.864 Y60.907 E8.73247
G1 X163.343 Y61.554 E8.79271
G1 X163.754 Y62.245 E8.85288
G1 X164.095 Y62.974 E8.91311
G1 X164.362 Y63.734 E8.97339
G1 X164.553 Y64.515 E9.03356
G1 X164.664 Y65.312 E9.09378
G1 X164.697 Y66.038 E9.14816
G1 X164.697 Y86.004 E10.64233
G1 X164.5 Y134.033 E14.23662
G1 X164.457 Y134.837 E14.29688
G1 X164.334 Y135.632 E14.35708
G1 X164.133 Y136.411 E14.41728
G1 X163.855 Y137.167 E14.47756
G1 X163.504 Y137.891 E14.53777
G1 X163.083 Y138.577 E14.59801
G1 X162.596 Y139.217 E14.65819
G1 X162.128 Y139.728 E14.71005
G1 X161.953 Y139.903 E14.72857
G1 X161.356 Y140.443 E14.78881
G1 X160.709 Y140.921 E14.84901
G1 X160.017 Y141.332 E14.90924
G1 X159.288 Y141.673 E14.96947
G1 X158.529 Y141.94 E15.02968
G1 X157.747 Y142.131 E15.08992
G1 X156.95 Y142.242 E15.15014
G1 X156.225 Y142.275 E15.20445
G1 X63.774 Y142.276 E22.12305
G1 X62.97 Y142.236 E22.18329
G1 X62.175 Y142.117 E22.24345
G1 X61.395 Y141.919 E22.30367
G1 X60.638 Y141.644 E22.36395
G1 X59.912 Y141.296 E22.4242
G1 X59.225 Y140.878 E22.48438
G1 X58.582 Y140.393 E22.54465
G1 X58.046 Y139.904 E22.59895
G1 X57.871 Y139.729 E22.61747
G1 X57.331 Y139.132 E22.67771
G1 X56.853 Y138.485 E22.73791
G1 X56.442 Y137.793 E22.79814
G1 X56.101 Y137.064 E22.85837
G1 X55.834 Y136.305 E22.91858
G1 X55.643 Y135.523 E22.97882
G1 X55.532 Y134.726 E23.03904
G1 X55.499 Y134.034 E23.09088
G1 X55.304 Y86.006 E26.6851
G1 X55.304 Y85.973 E26.68757
G1 X55.303 Y66.038 E28.17942
G1 X55.343 Y65.235 E28.23958
G1 X55.462 Y64.439 E28.29981
G1 X55.66 Y63.659 E28.36004
G1 X55.94 Y62.889 E28.42135
G1 X55.986 Y62.78 E28.4302
G1 X56.336 Y62.055 E28.49045
G1 X56.755 Y61.368 E28.55067
G1 X57.241 Y60.726 E28.61093
G1 X57.721 Y60.201 E28.66416
G0 F3600 X58.146 Y60.626
G1 F1800 X70.151 Y48.621 E29.93469
G1 X70.726 Y48.102 E29.99266
G1 X71.351 Y47.646 E30.05055
G1 X72.02 Y47.256 E30.10851
G1 X72.538 Y47.014 E30.15129
G1 X72.647 Y46.968 E30.16015
G1 X73.375 Y46.704 E30.2181
G1 X74.126 Y46.517 E30.27601
G1 X74.893 Y46.408 E30.33399
G1 X75.563 Y46.378 E30.38418
G1 X124.228 Y46.379 E34.02604
G1 X144.436 Y46.378 E35.53831
G1 X145.209 Y46.418 E35.59624
G1 X145.975 Y46.537 E35.65425
G1 X146.723 Y46.735 E35.71215
G1 X147.447 Y47.009 E35.77008
G1 X148.14 Y47.356 E35.82808
G1 X148.792 Y47.773 E35.886
G1 X149.399 Y48.255 E35.94401
G1 X149.739 Y48.574 E35.9789
G1 X161.9 Y60.734 E37.26588
G1 X162.419 Y61.31 E37.3239
G1 X162.875 Y61.935 E37.3818
G1 X163.265 Y62.604 E37.43975
G1 X163.583 Y63.31 E37.4977
G1 X163.827 Y64.045 E37.55565
G1 X163.994 Y64.801 E37.61359
G1 X164.082 Y65.57 E37.67151
G1 X164.097 Y66.038 E37.70656
G1 X164.097 Y86.002 E39.20057
G1 X163.9 Y134.031 E42.79486
G1 X163.857 Y134.804 E42.8528
G1 X163.734 Y135.568 E42.91071
G1 X163.533 Y136.316 E42.96867
G1 X163.257 Y137.039 E43.02659
G1 X162.907 Y137.73 E43.08455
G1 X162.487 Y138.381 E43.14253
G1 X162.003 Y138.986 E43.20051
G1 X161.703 Y139.303 E43.23317
G1 X161.528 Y139.478 E43.25169
G1 X160.953 Y139.997 E43.30966
G1 X160.328 Y140.453 E43.36756
G1 X159.659 Y140.843 E43.42551
G1 X158.953 Y141.161 E43.48345
G1 X158.218 Y141.405 E43.54141
G1 X157.462 Y141.572 E43.59935
G1 X156.692 Y141.66 E43.65735
G1 X156.225 Y141.675 E43.69231
G1 X63.774 Y141.676 E50.61091
G1 X63.001 Y141.636 E50.66884
G1 X62.236 Y141.517 E50.72677
G1 X61.487 Y141.319 E50.78475
G1 X60.763 Y141.045 E50.84268
G1 X60.071 Y140.698 E50.90061
G1 X59.418 Y140.281 E50.9586
G1 X58.812 Y139.8 E51.0165
G1 X58.471 Y139.479 E51.05154
G1 X58.296 Y139.304 E51.07006
G1 X57.777 Y138.729 E51.12803
G1 X57.321 Y138.104 E51.18593
G1 X56.931 Y137.435 E51.24388
G1 X56.613 Y136.729 E51.30182
G1 X56.369 Y135.994 E51.35978
G1 X56.202 Y135.238 E51.41772
G1 X56.114 Y134.468 E51.47572
G1 X56.099 Y134.031 E51.50844
G1 X55.904 Y86.003 E55.10266
G1 X55.904 Y85.973 E55.1049
G1 X55.903 Y66.038 E56.59675
G1 X55.943 Y65.265 E56.65467
G1 X56.062 Y64.5 E56.71261
G1 X56.26 Y63.751 E56.77059
G1 X56.493 Y63.122 E56.82078
G1 X56.539 Y63.013 E56.82964
G1 X56.877 Y62.316 E56.88761
G1 X57.284 Y61.658 E56.94551
G1 X57.757 Y61.045 E57.00345
G1 X58.146 Y60.626 E57.04624
G0 F3600 X58.57 Y61.05
G1 F1800 X70.575 Y49.045 E58.31676
G1 X71.128 Y48.549 E58.37235
G1 X71.73 Y48.115 E58.42789
G1 X72.376 Y47.748 E58.48349
G1 X72.771 Y47.567 E58.51601
G1 X72.88 Y47.521 E58.52486
G1 X73.579 Y47.269 E58.58047
G1 X74.301 Y47.094 E58.63606
G1 X75.037 Y46.998 E58.69161
G1 X75.563 Y46.978 E58.731
G1 X124.228 Y46.979 E62.37286
G1 X144.436 Y46.978 E63.88513
G1 X145.178 Y47.018 E63.94074
G1 X145.911 Y47.137 E63.99631
G1 X146.627 Y47.335 E64.0519
G1 X147.317 Y47.608 E64.10744
G1 X147.974 Y47.954 E64.163
G1 X148.591 Y48.369 E64.21865
G1 X149.315 Y48.999 E64.29047
G1 X161.476 Y61.159 E65.57745
G1 X161.972 Y61.711 E65.63299
G1 X162.406 Y62.314 E65.68859
G1 X162.772 Y62.96 E65.74415
G1 X163.068 Y63.642 E65.79979
G1 X163.288 Y64.351 E65.85534
G1 X163.43 Y65.08 E65.91092
G1 X163.497 Y66.038 E65.98279
G1 X163.497 Y85.999 E67.47658
G1 X163.3 Y134.028 E71.07087
G1 X163.257 Y134.77 E71.12649
G1 X163.134 Y135.502 E71.18204
G1 X162.934 Y136.217 E71.2376
G1 X162.658 Y136.907 E71.29322
G1 X162.309 Y137.563 E71.34882
G1 X161.892 Y138.177 E71.40437
G1 X161.279 Y138.879 E71.47411
G1 X161.104 Y139.054 E71.49263
G1 X160.551 Y139.55 E71.54823
G1 X159.949 Y139.984 E71.60376
G1 X159.303 Y140.351 E71.65936
G1 X158.621 Y140.646 E71.71497
G1 X157.912 Y140.866 E71.77052
G1 X157.183 Y141.008 E71.82611
G1 X156.225 Y141.075 E71.89797
G1 X63.774 Y141.076 E78.81657
G1 X63.032 Y141.036 E78.87218
G1 X62.299 Y140.917 E78.92775
G1 X61.583 Y140.719 E78.98335
G1 X60.893 Y140.446 E79.03888
G1 X60.236 Y140.1 E79.09444
G1 X59.62 Y139.685 E79.15003
G1 X58.895 Y139.055 E79.22191
G1 X58.72 Y138.88 E79.24043
G1 X58.224 Y138.327 E79.29602
G1 X57.79 Y137.725 E79.35156
G1 X57.423 Y137.079 E79.40716
G1 X57.128 Y136.397 E79.46276
G1 X56.908 Y135.688 E79.51832
G1 X56.766 Y134.959 E79.5739
G1 X56.699 Y134.029 E79.64368
G1 X56.504 Y86.001 E83.2379
G1 X56.504 Y85.973 E83.23999
G1 X56.503 Y66.038 E84.73183
G1 X56.543 Y65.297 E84.78737
G1 X56.662 Y64.564 E84.84294
G1 X56.86 Y63.848 E84.89853
G1 X57.046 Y63.355 E84.93796
G1 X57.092 Y63.246 E84.94682
G1 X57.417 Y62.578 E85.00241
G1 X57.812 Y61.95 E85.05793
G1 X58.273 Y61.367 E85.11355
G1 X58.57 Y61.05 E85.14606
G0 F3600 X58.994 Y61.474
G1 F1800 X70.999 Y49.469 E86.41659
G1 X71.528 Y48.996 E86.46969
G1 X72.108 Y48.586 E86.52284
G1 X73.004 Y48.12 E86.59842
G1 X73.113 Y48.074 E86.60728
G1 X73.782 Y47.835 E86.66044
G1 X74.473 Y47.673 E86.71355
G1 X75.177 Y47.59 E86.7666
G1 X75.563 Y47.578 E86.7955
G1 X124.228 Y47.579 E90.43736
G1 X144.436 Y47.578 E91.94964
G1 X145.145 Y47.618 E92.00278
G1 X145.844 Y47.737 E92.05584
G1 X146.526 Y47.935 E92.10899
G1 X147.181 Y48.207 E92.16206
G1 X147.801 Y48.552 E92.21516
G1 X148.379 Y48.964 E92.26828
G1 X148.891 Y49.423 E92.31974
G1 X161.052 Y61.583 E93.60672
G1 X161.524 Y62.112 E93.65977
G1 X161.935 Y62.691 E93.71291
G1 X162.277 Y63.313 E93.76603
G1 X162.548 Y63.969 E93.81915
G1 X162.742 Y64.651 E93.87221
G1 X162.859 Y65.351 E93.92532
G1 X162.897 Y66.038 E93.97681
G1 X162.897 Y85.997 E95.47045
G1 X162.7 Y134.026 E99.06474
G1 X162.657 Y134.734 E99.11782
G1 X162.535 Y135.433 E99.17093
G1 X162.335 Y136.114 E99.22404
G1 X162.059 Y136.768 E99.27716
G1 X161.712 Y137.387 E99.33027
G1 X161.297 Y137.963 E99.3834
G1 X160.855 Y138.455 E99.43289
G1 X160.68 Y138.63 E99.45141
G1 X160.151 Y139.103 E99.50452
G1 X159.571 Y139.513 E99.55767
G1 X158.95 Y139.855 E99.61072
G1 X158.294 Y140.126 E99.66384
G1 X157.611 Y140.321 E99.717
G1 X156.912 Y140.437 E99.77002
G1 X156.225 Y140.475 E99.82151
G1 X63.774 Y140.476 E106.74011
G1 X63.066 Y140.436 E106.79318
G1 X62.366 Y140.317 E106.84631
G1 X61.684 Y140.119 E106.89946
G1 X61.029 Y139.847 E106.95253
G1 X60.409 Y139.502 E107.00563
G1 X59.831 Y139.09 E107.05875
G1 X59.319 Y138.631 E107.11021
G1 X59.144 Y138.456 E107.12873
G1 X58.671 Y137.927 E107.18184
G1 X58.261 Y137.347 E107.23499
G1 X57.919 Y136.726 E107.28804
G1 X57.648 Y136.07 E107.34116
G1 X57.453 Y135.387 E107.39431
G1 X57.337 Y134.688 E107.44734
G1 X57.299 Y134.027 E107.49689
G1 X57.104 Y85.999 E111.09111
G1 X57.104 Y85.973 E111.09305
G1 X57.103 Y66.038 E112.58489
G1 X57.143 Y65.33 E112.63796
G1 X57.262 Y64.63 E112.6911
G1 X57.46 Y63.949 E112.74417
G1 X57.599 Y63.588 E112.77312
G1 X57.645 Y63.479 E112.78198
G1 X57.957 Y62.842 E112.83506
G1 X58.339 Y62.244 E112.88816
G1 X58.994 Y61.474 E112.96381
G0 F3600 X59.418 Y61.898
G1 F1800 X71.423 Y49.893 E114.23434
G1 X71.928 Y49.445 E114.28486
G1 X72.482 Y49.06 E114.33534
G1 X73.238 Y48.672 E114.39893
G1 X73.347 Y48.626 E114.40779
G1 X73.983 Y48.401 E114.45827
G1 X74.642 Y48.253 E114.50882
G1 X75.563 Y48.178 E114.57797
G1 X124.228 Y48.179 E118.21983
G1 X144.436 Y48.178 E119.7321
G1 X145.11 Y48.218 E119.78263
G1 X145.774 Y48.337 E119.83311
G1 X146.42 Y48.534 E119.88365
G1 X147.038 Y48.806 E119.93418
G1 X147.619 Y49.149 E119.98467
G1 X148.156 Y49.559 E120.03523
G1 X148.466 Y49.847 E120.0669
G1 X160.627 Y62.007 E121.35388
G1 X161.076 Y62.512 E121.40445
G1 X161.461 Y63.066 E121.45494
G1 X161.778 Y63.662 E121.50546
G1 X162.023 Y64.291 E121.55597
G1 X162.191 Y64.945 E121.60651
G1 X162.281 Y65.614 E121.65702
G1 X162.297 Y66.038 E121.68877
G1 X162.297 Y85.994 E123.18219
G1 X162.1 Y134.023 E126.77648
G1 X162.057 Y134.697 E126.82702
G1 X161.935 Y135.361 E126.87755
G1 X161.735 Y136.006 E126.92808
G1 X161.461 Y136.622 E126.97854
G1 X161.116 Y137.202 E127.02904
G1 X160.704 Y137.737 E127.07957
G1 X160.431 Y138.031 E127.1096
G1 X160.256 Y138.206 E127.12812
G1 X159.751 Y138.654 E127.17864
G1 X159.197 Y139.039 E127.22912
G1 X158.601 Y139.356 E127.27964
G1 X157.972 Y139.601 E127.33016
G1 X157.318 Y139.769 E127.38069
G1 X156.649 Y139.859 E127.4312
G1 X156.225 Y139.875 E127.46296
G1 X63.774 Y139.876 E134.38156
G1 X63.1 Y139.836 E134.43208
G1 X62.436 Y139.717 E134.48257
G1 X61.79 Y139.52 E134.53311
G1 X61.173 Y139.248 E134.58357
G1 X60.591 Y138.905 E134.63412
G1 X60.055 Y138.495 E134.68463
G1 X59.743 Y138.207 E134.7164
G1 X59.568 Y138.032 E134.73492
G1 X59.12 Y137.527 E134.78544
G1 X58.735 Y136.973 E134.83593
G1 X58.418 Y136.377 E134.88645
G1 X58.173 Y135.748 E134.93696
G1 X58.005 Y135.094 E134.98749
G1 X57.915 Y134.425 E135.03801
G1 X57.899 Y134.024 E135.06804
G1 X57.704 Y85.996 E138.66226
G1 X57.704 Y85.973 E138.66398
G1 X57.703 Y66.038 E140.15582
G1 X57.743 Y65.364 E140.20635
G1 X57.862 Y64.7 E140.25683
G1 X58.151 Y63.822 E140.32601
G1 X58.197 Y63.713 E140.33486
G1 X58.496 Y63.108 E140.38536
G1 X58.865 Y62.542 E140.43593
G1 X59.418 Y61.898 E140.49945
G0 F3600 X59.843 Y62.323
G1 F1800 X71.848 Y50.318 E141.76998
G1 X72.327 Y49.895 E141.8178
G1 X72.854 Y49.536 E141.86552
G1 X73.471 Y49.225 E141.91723
G1 X73.58 Y49.179 E141.92608
G1 X74.183 Y48.968 E141.97389
G1 X74.807 Y48.834 E142.02165
G1 X75.563 Y48.778 E142.07838
G1 X124.228 Y48.779 E145.72024
G1 X144.436 Y48.778 E147.23251
G1 X145.073 Y48.818 E147.28028
G1 X145.7 Y48.937 E147.32804
G1 X146.308 Y49.134 E147.37587
G1 X146.886 Y49.405 E147.42364
G1 X147.426 Y49.746 E147.47143
G1 X148.042 Y50.272 E147.53205
G1 X160.203 Y62.432 E148.81903
G1 X160.625 Y62.91 E148.86675
G1 X160.985 Y63.438 E148.91458
G1 X161.275 Y64.007 E148.96237
G1 X161.492 Y64.607 E149.01012
G1 X161.633 Y65.23 E149.05792
G1 X161.697 Y66.038 E149.11857
G1 X161.697 Y85.992 E150.61184
G1 X161.5 Y134.021 E154.20613
G1 X161.457 Y134.658 E154.25391
G1 X161.336 Y135.285 E154.3017
G1 X161.136 Y135.891 E154.34945
G1 X160.863 Y136.468 E154.39722
G1 X160.52 Y137.006 E154.44497
G1 X160.006 Y137.606 E154.5041
G1 X159.831 Y137.781 E154.52262
G1 X159.352 Y138.204 E154.57044
G1 X158.825 Y138.563 E154.61816
G1 X158.256 Y138.853 E154.66595
G1 X157.656 Y139.07 E154.7137
G1 X157.033 Y139.211 E154.7615
G1 X156.225 Y139.275 E154.82216
G1 X63.774 Y139.276 E161.74076
G1 X63.137 Y139.236 E161.78852
G1 X62.51 Y139.117 E161.83628
G1 X61.902 Y138.92 E161.88411
G1 X61.324 Y138.649 E161.93188
G1 X60.785 Y138.308 E161.97961
G1 X60.168 Y137.782 E162.04029
G1 X59.993 Y137.607 E162.05881
G1 X59.57 Y137.128 E162.10663
G1 X59.211 Y136.601 E162.15435
G1 X58.921 Y136.032 E162.20214
G1 X58.704 Y135.432 E162.24989
G1 X58.563 Y134.809 E162.29769
G1 X58.499 Y134.022 E162.35678
G1 X58.304 Y85.994 E165.951
G1 X58.304 Y85.973 E165.95257
G1 X58.303 Y66.038 E167.44441
G1 X58.343 Y65.401 E167.49218
G1 X58.462 Y64.774 E167.53994
G1 X58.704 Y64.055 E167.59671
G1 X58.75 Y63.946 E167.60556
G1 X59.035 Y63.375 E167.65332
G1 X59.389 Y62.843 E167.70114
G1 X59.843 Y62.323 E167.7528
G0 F3600 X60.267 Y62.747
G1 F1800 X72.272 Y50.742 E169.02333
G1 X72.723 Y50.347 E169.06819
G1 X73.223 Y50.016 E169.11307
G1 X73.704 Y49.778 E169.15323
G1 X73.813 Y49.732 E169.16208
G1 X74.38 Y49.536 E169.20698
G1 X74.968 Y49.418 E169.25186
G1 X75.563 Y49.378 E169.29648
G1 X124.228 Y49.379 E172.93834
G1 X144.436 Y49.378 E174.45062
G1 X145.034 Y49.418 E174.49547
G1 X145.622 Y49.537 E174.54036
G1 X146.189 Y49.733 E174.58526
G1 X146.724 Y50.003 E174.63011
G1 X147.219 Y50.342 E174.675
G1 X147.618 Y50.696 E174.71492
G1 X159.779 Y62.856 E176.0019
G1 X160.174 Y63.307 E176.04677
G1 X160.505 Y63.807 E176.09164
G1 X160.767 Y64.346 E176.13649
G1 X160.955 Y64.916 E176.18141
G1 X161.065 Y65.505 E176.22625
G1 X161.097 Y66.038 E176.26621
G1 X161.097 Y85.989 E177.75925
G1 X160.9 Y134.018 E181.35354
G1 X160.858 Y134.617 E181.39848
G1 X160.736 Y135.204 E181.44335
G1 X160.537 Y135.77 E181.48824
G1 X160.265 Y136.304 E181.53309
G1 X159.925 Y136.798 E181.57797
G1 X159.582 Y137.182 E181.6165
G1 X159.407 Y137.357 E181.63502
G1 X158.956 Y137.752 E181.67989
G1 X158.456 Y138.083 E181.72476
G1 X157.916 Y138.345 E181.76968
G1 X157.347 Y138.533 E181.81452
G1 X156.757 Y138.643 E181.85944
G1 X156.225 Y138.675 E181.89932
G1 X63.774 Y138.676 E188.81792
G1 X63.176 Y138.636 E188.86277
G1 X62.588 Y138.517 E188.90767
G1 X62.021 Y138.321 E188.95256
G1 X61.486 Y138.051 E188.99741
G1 X60.991 Y137.712 E189.04231
G1 X60.592 Y137.358 E189.08222
G1 X60.417 Y137.183 E189.10074
G1 X60.022 Y136.732 E189.14561
G1 X59.691 Y136.232 E189.19048
G1 X59.429 Y135.692 E189.2354
G1 X59.241 Y135.123 E189.28025
G1 X59.131 Y134.533 E189.32516
G1 X59.099 Y134.019 E189.3637
G1 X58.904 Y85.991 E192.95792
G1 X58.904 Y85.973 E192.95927
G1 X58.903 Y66.038 E194.45111
G1 X58.943 Y65.44 E194.49596
G1 X59.062 Y64.852 E194.54085
G1 X59.257 Y64.288 E194.58551
G1 X59.303 Y64.179 E194.59437
G1 X59.573 Y63.644 E194.63921
G1 X59.911 Y63.148 E194.68413
G1 X60.267 Y62.747 E194.72426
G0 F3600 X60.691 Y63.171
G1 F1800 X72.696 Y51.166 E195.99478
G1 X73.118 Y50.801 E196.03654
G1 X73.588 Y50.499 E196.07835
G1 X73.938 Y50.331 E196.1074
G1 X74.047 Y50.285 E196.11625
G1 X74.575 Y50.105 E196.158
G1 X75.124 Y50.003 E196.19979
G1 X75.563 Y49.978 E196.23269
