;FLAVOR:Marlin
;TIME:6355
;Filament used: 14.6428m
;Layer height: 0.4
;MINX:56.678
;MINY:78.884
;MINZ:0.3
;MAXX:163.343
;MAXY:176.003
;MAXZ:34.7
;Generated with Cura_SteamEngine 4.4.0
M140 S60
M105
M190 S60
M104 S210
M105
M109 S210
M82 ;absolute extrusion mode
G21 ;metric values
G90 ;absolute positioning
M82 ;set extruder to absolute mode
M107 ;start with the fan off
G28 X0 Y0 ;move X/Y to min endstops
G28 Z0 ;move Z to min endstops
M84 ;steppers off
M0 S12 ;wait 12 seconds
M17 ;turn steppers on
G1 Z10.0 F300 ;move the platform down 10mm
G92 E0 ;zero the extruded length
G1 F200 E8 ;extrude 8mm of feed stock
G92 E0 ;zero the extruded length again
M0 S5 ;wait 5 seconds
G1 F9000
M117 Printing...
G92 E0
G92 E0
G1 F1500 E-6.5
;LAYER_COUNT:87
;LAYER:0
M107
G0 F3600 X60.082 Y80.87 Z0.3
;TYPE:SKIRT
G1 F1500 E0
G1 F1800 X60.531 Y80.538 E0.04179
G1 X61.201 Y80.092 E0.10202
G1 X61.912 Y79.715 E0.16225
G1 X62.811 Y79.358 E0.23463
G1 X62.902 Y79.328 E0.2418
G1 X63.678 Y79.115 E0.30202
G1 X64.471 Y78.979 E0.36224
G1 X65.438 Y78.921 E0.43473
G1 X153.807 Y78.922 E7.04785
G1 X153.941 Y78.905 E7.05796
G1 X154.745 Y78.884 E7.11815
G1 X155.33 Y78.919 E7.16201
G1 X155.475 Y78.933 E7.17291
G1 X156.272 Y79.051 E7.2332
G1 X157.052 Y79.246 E7.29337
G1 X157.81 Y79.518 E7.35364
G1 X158.536 Y79.864 E7.41382
G1 X159.275 Y80.314 E7.47857
G1 X159.618 Y80.549 E7.50969
G1 X160.259 Y81.036 E7.56993
G1 X160.848 Y81.585 E7.63019
G1 X161.379 Y82.189 E7.69037
G1 X161.88 Y82.893 E7.75503
G1 X162.069 Y83.191 E7.78144
G1 X162.466 Y83.891 E7.84166
G1 X162.791 Y84.627 E7.90187
G1 X163.042 Y85.392 E7.96213
G1 X163.215 Y86.177 E8.02228
G1 X163.29 Y86.734 E8.06434
G1 X163.304 Y86.876 E8.07502
G1 X163.343 Y87.68 E8.13526
G1 X163.304 Y88.445 E8.19258
G1 X163.303 Y156.559 E13.28991
G1 X163.263 Y157.363 E13.35015
G1 X163.143 Y158.159 E13.4104
G1 X162.946 Y158.939 E13.4706
G1 X162.666 Y159.708 E13.53184
G1 X162.62 Y159.817 E13.5407
G1 X162.27 Y160.542 E13.60095
G1 X161.851 Y161.229 E13.66116
G1 X161.365 Y161.871 E13.72142
G1 X160.885 Y162.396 E13.77466
G1 X149.696 Y173.585 E14.95882
G1 X149.099 Y174.125 E15.01907
G1 X148.452 Y174.603 E15.07926
G1 X147.76 Y175.014 E15.1395
G1 X147.117 Y175.32 E15.19279
G1 X147.008 Y175.366 E15.20164
G1 X146.252 Y175.641 E15.26184
G1 X145.473 Y175.841 E15.32203
G1 X144.677 Y175.962 E15.38228
G1 X143.859 Y176.003 E15.44357
G1 X76.141 Y176.003 E20.51127
G1 X75.337 Y175.963 E20.57151
G1 X74.541 Y175.843 E20.63176
G1 X73.761 Y175.646 E20.69196
G1 X72.992 Y175.366 E20.7532
G1 X72.883 Y175.32 E20.76206
G1 X72.158 Y174.97 E20.82231
G1 X71.471 Y174.551 E20.88252
G1 X70.829 Y174.065 E20.94278
G1 X70.304 Y173.585 E20.99602
G1 X59.115 Y162.396 E22.18018
G1 X58.575 Y161.799 E22.24043
G1 X58.097 Y161.152 E22.30062
G1 X57.686 Y160.46 E22.36086
G1 X57.38 Y159.817 E22.41415
G1 X57.334 Y159.708 E22.423
G1 X57.059 Y158.952 E22.4832
G1 X56.859 Y158.173 E22.54339
G1 X56.738 Y157.377 E22.60364
G1 X56.697 Y156.559 E22.66493
G1 X56.696 Y88.109 E27.78741
G1 X56.678 Y87.9 E27.80311
G1 X56.689 Y87.095 E27.86336
G1 X56.78 Y86.295 E27.92361
G1 X56.95 Y85.509 E27.98379
G1 X57.197 Y84.743 E28.04402
G1 X57.685 Y83.689 E28.13094
G1 X57.81 Y83.463 E28.15027
G1 X58.234 Y82.779 E28.21049
G1 X58.724 Y82.14 E28.27076
G1 X59.274 Y81.553 E28.33095
G1 X60.082 Y80.87 E28.41013
G0 F3600 X60.439 Y81.353
G1 F1800 X60.888 Y81.021 E28.45192
G1 X61.533 Y80.593 E28.50985
G1 X62.22 Y80.234 E28.56786
G1 X62.999 Y79.928 E28.63049
G1 X63.09 Y79.898 E28.63766
G1 X63.837 Y79.694 E28.69561
G1 X64.601 Y79.568 E28.75355
G1 X65.438 Y79.521 E28.81629
G1 X153.859 Y79.522 E35.4333
G1 X154.073 Y79.497 E35.44943
G1 X154.848 Y79.488 E35.50743
G1 X155.273 Y79.517 E35.53931
G1 X155.418 Y79.531 E35.55021
G1 X156.184 Y79.645 E35.60816
G1 X156.934 Y79.837 E35.6661
G1 X157.66 Y80.106 E35.72404
G1 X158.355 Y80.448 E35.78201
G1 X158.936 Y80.809 E35.8332
G1 X159.279 Y81.044 E35.86431
G1 X159.894 Y81.514 E35.92224
G1 X160.458 Y82.045 E35.98021
G1 X160.964 Y82.631 E36.03814
G1 X161.374 Y83.214 E36.09148
G1 X161.563 Y83.512 E36.11789
G1 X161.943 Y84.187 E36.17586
G1 X162.252 Y84.897 E36.23381
G1 X162.486 Y85.635 E36.29174
G1 X162.642 Y86.393 E36.34966
G1 X162.693 Y86.793 E36.37983
G1 X162.707 Y86.935 E36.39051
G1 X162.743 Y87.709 E36.4485
G1 X162.704 Y88.394 E36.49984
G1 X162.703 Y156.559 E41.60099
G1 X162.663 Y157.332 E41.65892
G1 X162.544 Y158.097 E41.71685
G1 X162.346 Y158.846 E41.77483
G1 X162.113 Y159.475 E41.82503
G1 X162.067 Y159.584 E41.83388
G1 X161.729 Y160.281 E41.89185
G1 X161.322 Y160.939 E41.94975
G1 X160.849 Y161.552 E42.00769
G1 X160.46 Y161.971 E42.05048
G1 X149.271 Y173.16 E43.23465
G1 X148.696 Y173.679 E43.29261
G1 X148.071 Y174.135 E43.35051
G1 X147.402 Y174.525 E43.40846
G1 X146.884 Y174.767 E43.45125
G1 X146.775 Y174.813 E43.4601
G1 X146.047 Y175.077 E43.51805
G1 X145.296 Y175.264 E43.57597
G1 X144.529 Y175.373 E43.63395
G1 X143.859 Y175.403 E43.68414
G1 X76.141 Y175.403 E48.75183
G1 X75.368 Y175.363 E48.80976
G1 X74.603 Y175.244 E48.8677
G1 X73.854 Y175.046 E48.92567
G1 X73.225 Y174.813 E48.97587
G1 X73.116 Y174.767 E48.98472
G1 X72.419 Y174.429 E49.04269
G1 X71.761 Y174.022 E49.10059
G1 X71.148 Y173.549 E49.15854
G1 X70.729 Y173.16 E49.20132
G1 X59.54 Y161.971 E50.38549
G1 X59.021 Y161.396 E50.44346
G1 X58.565 Y160.771 E50.50135
G1 X58.175 Y160.102 E50.5593
G1 X57.933 Y159.584 E50.60209
G1 X57.887 Y159.475 E50.61094
G1 X57.623 Y158.747 E50.6689
G1 X57.436 Y157.996 E50.72681
G1 X57.327 Y157.229 E50.78479
G1 X57.297 Y156.559 E50.83498
G1 X57.296 Y88.074 E55.96007
G1 X57.277 Y87.849 E55.97697
G1 X57.292 Y87.075 E56.03491
G1 X57.387 Y86.306 E56.09289
G1 X57.561 Y85.551 E56.15087
G1 X57.811 Y84.819 E56.20876
G1 X58.21 Y83.979 E56.27835
G1 X58.335 Y83.753 E56.29768
G1 X58.744 Y83.096 E56.3556
G1 X59.219 Y82.484 E56.41357
G1 X59.754 Y81.925 E56.47148
G1 X60.439 Y81.353 E56.53826
G0 F3600 X60.796 Y81.835
G1 F1800 X61.245 Y81.503 E56.58005
G1 X61.865 Y81.094 E56.63563
G1 X62.525 Y80.754 E56.69119
G1 X63.187 Y80.498 E56.74431
G1 X63.278 Y80.468 E56.75148
G1 X63.994 Y80.274 E56.80699
G1 X64.728 Y80.158 E56.8626
G1 X65.438 Y80.121 E56.91581
G1 X153.906 Y80.122 E63.53634
G1 X154.203 Y80.091 E63.55869
G1 X155.215 Y80.114 E63.63444
G1 X155.36 Y80.128 E63.64534
G1 X156.094 Y80.239 E63.70089
G1 X156.813 Y80.428 E63.75653
G1 X157.506 Y80.694 E63.81208
G1 X158.167 Y81.032 E63.86764
G1 X158.597 Y81.304 E63.90571
G1 X158.94 Y81.539 E63.93683
G1 X159.529 Y81.991 E63.99239
G1 X160.066 Y82.504 E64.04797
G1 X160.545 Y83.071 E64.10351
G1 X160.867 Y83.535 E64.14578
G1 X161.056 Y83.833 E64.17219
G1 X161.419 Y84.481 E64.22777
G1 X161.711 Y85.164 E64.28336
G1 X161.928 Y85.875 E64.33899
G1 X162.096 Y86.852 E64.41318
G1 X162.11 Y86.994 E64.42385
G1 X162.143 Y87.736 E64.47944
G1 X162.104 Y88.351 E64.52555
G1 X162.103 Y156.559 E69.62992
G1 X162.063 Y157.301 E69.68553
G1 X161.944 Y158.034 E69.7411
G1 X161.746 Y158.75 E69.79669
G1 X161.56 Y159.242 E69.83606
G1 X161.514 Y159.351 E69.84491
G1 X161.189 Y160.019 E69.9005
G1 X160.794 Y160.647 E69.95602
G1 X160.333 Y161.23 E70.01164
G1 X160.036 Y161.547 E70.04415
G1 X148.847 Y172.736 E71.22832
G1 X148.294 Y173.232 E71.28391
G1 X147.692 Y173.666 E71.33945
G1 X147.046 Y174.033 E71.39505
G1 X146.651 Y174.214 E71.42756
G1 X146.542 Y174.26 E71.43642
G1 X145.843 Y174.512 E71.49202
G1 X145.121 Y174.687 E71.54762
G1 X144.385 Y174.783 E71.60316
G1 X143.859 Y174.803 E71.64255
G1 X76.141 Y174.803 E76.71025
G1 X75.399 Y174.763 E76.76586
G1 X74.666 Y174.644 E76.82143
G1 X73.95 Y174.446 E76.87703
G1 X73.458 Y174.26 E76.91639
G1 X73.349 Y174.214 E76.92524
G1 X72.681 Y173.889 E76.98083
G1 X72.053 Y173.494 E77.03635
G1 X71.47 Y173.033 E77.09197
G1 X71.153 Y172.736 E77.12448
G1 X59.964 Y161.547 E78.30865
G1 X59.468 Y160.994 E78.36424
G1 X59.034 Y160.392 E78.41978
G1 X58.667 Y159.746 E78.47538
G1 X58.486 Y159.351 E78.50789
G1 X58.44 Y159.242 E78.51675
G1 X58.188 Y158.543 E78.57235
G1 X58.013 Y157.821 E78.62795
G1 X57.917 Y157.085 E78.68349
G1 X57.897 Y156.559 E78.72289
G1 X57.896 Y88.046 E83.85008
G1 X57.876 Y87.799 E83.86862
G1 X57.895 Y87.057 E83.92417
G1 X57.994 Y86.321 E83.97974
G1 X58.172 Y85.6 E84.03532
G1 X58.426 Y84.902 E84.09091
G1 X58.735 Y84.269 E84.14362
G1 X58.86 Y84.043 E84.16295
G1 X59.254 Y83.414 E84.21849
G1 X59.713 Y82.83 E84.27408
G1 X60.233 Y82.299 E84.32969
G1 X60.796 Y81.835 E84.38429
G0 F3600 X61.152 Y82.317
G1 F1800 X61.601 Y81.985 E84.42608
G1 X62.195 Y81.596 E84.47922
G1 X62.828 Y81.276 E84.5323
G1 X63.375 Y81.068 E84.57609
G1 X63.466 Y81.038 E84.58326
G1 X64.151 Y80.854 E84.63634
G1 X64.853 Y80.748 E84.68947
G1 X65.438 Y80.721 E84.7333
G1 X153.936 Y80.722 E91.35607
G1 X154.328 Y80.686 E91.38553
G1 X155.157 Y80.711 E91.4476
G1 X155.302 Y80.725 E91.4585
G1 X156.004 Y80.833 E91.51165
G1 X156.689 Y81.019 E91.56477
G1 X157.348 Y81.281 E91.61784
G1 X158.258 Y81.799 E91.6962
G1 X158.601 Y82.034 E91.72732
G1 X159.163 Y82.467 E91.78041
G1 X159.672 Y82.961 E91.83349
G1 X160.123 Y83.509 E91.8866
G1 X160.36 Y83.857 E91.91811
G1 X160.549 Y84.155 E91.94452
G1 X160.895 Y84.775 E91.99765
G1 X161.169 Y85.429 E92.05072
G1 X161.367 Y86.111 E92.10386
G1 X161.499 Y86.911 E92.16454
G1 X161.513 Y87.053 E92.17522
G1 X161.542 Y87.762 E92.22832
G1 X161.504 Y88.3 E92.26868
G1 X161.503 Y156.559 E97.37686
G1 X161.463 Y157.268 E97.43001
G1 X161.344 Y157.967 E97.48307
G1 X161.146 Y158.649 E97.53621
G1 X161.007 Y159.009 E97.56509
G1 X160.961 Y159.118 E97.57395
G1 X160.649 Y159.755 E97.62703
G1 X160.267 Y160.353 E97.68013
G1 X159.612 Y161.123 E97.75578
G1 X148.423 Y172.312 E98.93995
G1 X147.894 Y172.785 E98.99305
G1 X147.314 Y173.195 E99.04621
G1 X146.418 Y173.661 E99.12179
G1 X146.309 Y173.707 E99.13064
G1 X145.64 Y173.946 E99.1838
G1 X144.949 Y174.108 E99.23692
G1 X144.245 Y174.191 E99.28997
G1 X143.859 Y174.203 E99.31887
G1 X76.141 Y174.203 E104.38656
G1 X75.432 Y174.163 E104.43971
G1 X74.733 Y174.044 E104.49277
G1 X74.051 Y173.846 E104.54591
G1 X73.691 Y173.707 E104.57479
G1 X73.582 Y173.661 E104.58365
G1 X72.945 Y173.349 E104.63673
G1 X72.347 Y172.967 E104.68983
G1 X71.577 Y172.312 E104.76548
G1 X60.388 Y161.123 E105.94965
G1 X59.915 Y160.594 E106.00275
G1 X59.505 Y160.014 E106.05591
G1 X59.039 Y159.118 E106.13149
G1 X58.993 Y159.009 E106.14034
G1 X58.754 Y158.34 E106.1935
G1 X58.592 Y157.649 E106.24662
G1 X58.509 Y156.945 E106.29967
G1 X58.497 Y156.559 E106.32857
G1 X58.496 Y88.017 E111.45793
G1 X58.475 Y87.751 E111.4779
G1 X58.499 Y87.042 E111.53099
G1 X58.602 Y86.34 E111.58408
G1 X58.784 Y85.654 E111.6372
G1 X59.042 Y84.993 E111.6903
G1 X59.26 Y84.56 E111.72657
G1 X59.385 Y84.334 E111.7459
G1 X59.763 Y83.733 E111.79903
G1 X60.206 Y83.179 E111.85212
G1 X60.709 Y82.678 E111.90525
G1 X61.152 Y82.317 E111.94801
G0 F3600 X61.509 Y82.8
G1 F1800 X61.958 Y82.468 E111.9898
G1 X62.524 Y82.099 E112.04036
G1 X63.129 Y81.8 E112.09087
G1 X63.562 Y81.638 E112.12546
G1 X63.653 Y81.608 E112.13264
G1 X64.306 Y81.435 E112.18319
G1 X64.974 Y81.34 E112.23368
G1 X65.438 Y81.321 E112.26843
G1 X153.943 Y81.322 E118.89173
G1 X154.448 Y81.283 E118.92964
G1 X155.1 Y81.308 E118.97847
G1 X155.245 Y81.322 E118.98937
G1 X155.912 Y81.427 E119.0399
G1 X156.561 Y81.61 E119.09036
G1 X157.185 Y81.868 E119.14089
G1 X157.919 Y82.294 E119.2044
G1 X158.262 Y82.529 E119.23552
G1 X158.795 Y82.943 E119.28602
G1 X159.276 Y83.417 E119.33656
G1 X159.854 Y84.178 E119.40807
G1 X160.043 Y84.476 E119.43448
G1 X160.37 Y85.067 E119.48503
G1 X160.625 Y85.691 E119.53547
G1 X160.804 Y86.342 E119.586
G1 X160.901 Y86.97 E119.63355
G1 X160.915 Y87.112 E119.64423
G1 X160.942 Y87.786 E119.69471
G1 X160.904 Y88.26 E119.7303
G1 X160.903 Y156.559 E124.84147
G1 X160.863 Y157.233 E124.892
G1 X160.744 Y157.897 E124.94248
G1 X160.455 Y158.775 E125.01166
G1 X160.409 Y158.884 E125.02051
G1 X160.11 Y159.489 E125.07101
G1 X159.741 Y160.055 E125.12157
G1 X159.188 Y160.699 E125.1851
G1 X147.999 Y171.888 E126.36927
G1 X147.494 Y172.336 E126.41978
G1 X146.94 Y172.721 E126.47027
G1 X146.184 Y173.109 E126.53386
G1 X146.075 Y173.155 E126.54272
G1 X145.439 Y173.38 E126.5932
G1 X144.78 Y173.528 E126.64375
G1 X143.859 Y173.603 E126.7129
G1 X76.141 Y173.603 E131.7806
G1 X75.467 Y173.563 E131.83112
G1 X74.803 Y173.444 E131.88161
G1 X73.925 Y173.155 E131.95078
G1 X73.816 Y173.109 E131.95963
G1 X73.211 Y172.81 E132.01014
G1 X72.645 Y172.441 E132.0607
G1 X72.001 Y171.888 E132.12422
G1 X60.812 Y160.699 E133.30839
G1 X60.364 Y160.194 E133.35891
G1 X59.979 Y159.64 E133.4094
G1 X59.591 Y158.884 E133.47299
G1 X59.545 Y158.775 E133.48184
G1 X59.32 Y158.139 E133.53233
G1 X59.172 Y157.48 E133.58287
G1 X59.097 Y156.559 E133.65202
G1 X59.096 Y87.995 E138.78303
G1 X59.074 Y87.705 E138.8048
G1 X59.102 Y87.03 E138.85535
G1 X59.211 Y86.364 E138.90586
G1 X59.397 Y85.715 E138.95638
G1 X59.785 Y84.85 E139.02733
G1 X59.91 Y84.624 E139.04665
G1 X60.271 Y84.054 E139.09715
G1 X60.697 Y83.53 E139.14768
G1 X61.182 Y83.061 E139.19817
G1 X61.509 Y82.8 E139.22948
G0 F3600 X61.866 Y83.282
G1 F1800 X62.315 Y82.95 E139.27127
G1 X62.851 Y82.604 E139.31901
G1 X63.426 Y82.327 E139.36678
G1 X63.75 Y82.207 E139.39263
G1 X63.841 Y82.177 E139.3998
G1 X64.459 Y82.016 E139.4476
G1 X65.092 Y81.933 E139.49537
G1 X65.438 Y81.921 E139.52128
G1 X153.92 Y81.922 E146.14286
G1 X153.925 Y81.921 E146.14324
G1 X154.563 Y81.882 E146.19107
G1 X155.042 Y81.906 E146.22697
G1 X155.187 Y81.92 E146.23787
G1 X155.818 Y82.021 E146.28569
G1 X156.43 Y82.2 E146.33341
G1 X157.016 Y82.454 E146.3812
G1 X157.58 Y82.789 E146.43029
G1 X157.923 Y83.024 E146.46141
G1 X158.426 Y83.417 E146.50918
G1 X158.876 Y83.87 E146.55696
G1 X159.347 Y84.499 E146.61577
G1 X159.536 Y84.797 E146.64218
G1 X159.843 Y85.357 E146.68997
G1 X160.079 Y85.951 E146.7378
G1 X160.238 Y86.569 E146.78555
G1 X160.304 Y87.029 E146.82033
G1 X160.318 Y87.171 E146.83101
G1 X160.341 Y87.809 E146.87879
G1 X160.304 Y88.222 E146.90982
G1 X160.303 Y156.559 E152.02384
G1 X160.263 Y157.196 E152.0716
G1 X160.144 Y157.823 E152.11936
G1 X159.902 Y158.542 E152.17613
G1 X159.856 Y158.651 E152.18499
G1 X159.571 Y159.222 E152.23274
G1 X159.217 Y159.754 E152.28056
G1 X158.763 Y160.274 E152.33222
G1 X147.574 Y171.463 E153.51639
G1 X147.095 Y171.886 E153.56421
G1 X146.568 Y172.245 E153.61193
G1 X145.951 Y172.556 E153.66364
G1 X145.842 Y172.602 E153.67249
G1 X145.239 Y172.813 E153.7203
G1 X144.615 Y172.947 E153.76806
G1 X143.859 Y173.003 E153.82479
G1 X76.141 Y173.003 E158.89249
G1 X75.504 Y172.963 E158.94026
G1 X74.877 Y172.844 E158.98801
G1 X74.158 Y172.602 E159.04479
G1 X74.049 Y172.556 E159.05364
G1 X73.478 Y172.271 E159.1014
G1 X72.946 Y171.917 E159.14922
G1 X72.426 Y171.463 E159.20088
G1 X61.237 Y160.274 E160.38505
G1 X60.814 Y159.795 E160.43287
G1 X60.455 Y159.268 E160.48059
G1 X60.144 Y158.651 E160.53229
G1 X60.098 Y158.542 E160.54115
G1 X59.887 Y157.939 E160.58896
G1 X59.753 Y157.315 E160.63672
G1 X59.697 Y156.559 E160.69345
G1 X59.696 Y87.972 E165.82618
G1 X59.673 Y87.66 E165.84959
G1 X59.707 Y87.022 E165.8974
G1 X59.82 Y86.394 E165.94515
G1 X60.01 Y85.785 E165.9929
G1 X60.31 Y85.141 E166.04606
G1 X60.435 Y84.915 E166.06539
G1 X60.779 Y84.376 E166.11324
G1 X61.186 Y83.885 E166.16097
G1 X61.866 Y83.282 E166.22898
G0 F3600 X62.223 Y83.765
G1 F1800 X62.672 Y83.433 E166.27077
G1 X63.176 Y83.109 E166.31561
G1 X63.938 Y82.777 E166.37781
G1 X64.029 Y82.747 E166.38498
G1 X64.61 Y82.598 E166.42987
G1 X65.438 Y82.521 E166.4921
G1 X153.991 Y82.522 E173.11899
G1 X154.071 Y82.508 E173.12507
G1 X154.671 Y82.484 E173.17
G1 X154.984 Y82.503 E173.19347
G1 X155.129 Y82.517 E173.20437
G1 X155.721 Y82.614 E173.24927
G1 X156.295 Y82.789 E173.29417
G1 X156.84 Y83.039 E173.33904
G1 X157.24 Y83.284 E173.37415
G1 X157.583 Y83.519 E173.40526
G1 X158.054 Y83.89 E173.45013
G1 X158.472 Y84.32 E173.49501
G1 X158.84 Y84.821 E173.54153
G1 X159.029 Y85.119 E173.56794
G1 X159.316 Y85.646 E173.61284
G1 X159.53 Y86.206 E173.65771
G1 X159.668 Y86.789 E173.70254
G1 X159.707 Y87.087 E173.72503
G1 X159.721 Y87.229 E173.73571
G1 X159.74 Y87.829 E173.78063
G1 X159.704 Y88.181 E173.80711
G1 X159.703 Y156.559 E178.9242
G1 X159.663 Y157.157 E178.96905
G1 X159.544 Y157.745 E179.01395
